X:1
T:Title
%%score 1 2
L:1/8
Q:1/4=90
M:3/4
K:Bb
V:1 treble nm="Grand Piano, Soprano"
V:2 bass nm="Choir Pad, Buckinghamshire, 1913"
V:1
 [DF]>[_D=E] [_EG]2 [=DF]2 | [CE]>[B,D] [DF]2 [CE]2 | [A,C]>[B,D] [CE]2 [A,C]2 | [EG]>[CE] [B,D]4 | %4
w: By~E.~C.~Huckabee,~1913 * * *||||
 [DF]>[DG] [EA]2 [EG]2 | [EA]>[EB] [EB]2 [EA]2 | [EF]>[EG] [EA]3 [EG] | [EA]>[EG] [DF]4 | %8
w: ||||
 D>D [DG]2 [DG]2 | [DG]>[DG] [DA]2 [DA]2 | D>D [DB]3 [DB] | [Dc]>[=E_d] [F=d]4 | %12
w: ||||
 [^Fc]>[FB] [GB]3 [GB] | [GB]>[GB] [AB]2 [GB]2 | [FA]>[EG] [DF]2 [DB]2 | [CA]>[Ec] [DB]4 | %16
w: ||||
 [DF]>[DF] [DB]3 [DB] | [DA]>[DG] [EA]2 [EA]2 | [EF]>[EF] [Ec]3 [Ec] | [DB]>[Ec] [Fd]4 | %20
w: ||||
 [^Fc]>[FB] [GB]3 [GB] | [GB]>[GB] [_AB]2 [GB]2 | [FA]>[EG] [DF]2 [DB]2 | [CA]>[Ec] [DB]4- | %24
w: ||||
 [DB]4 z2 |] %25
w: |
V:2
 [B,,B,]>[B,,B,] [B,,B,]2 [B,,B,]2 | F,>F, [F,A,]2 [F,A,]2 | [E,F,]>[D,F,] [C,F,]2 [F,,F,]2 | %3
 [F,,F,]>[A,,F,] [B,,F,]4 | [B,,B,]>[B,,B,] [C,C]2 [C,A,]2 | [C,A,]>[C,B,] [F,C]4 | %6
 [F,A,]>F, F,3 F, | F,>F, [B,,B,]4 | B,>B, [G,B,]2 [G,B,]2 | [G,B,]>[G,B,] [^F,C]2 [F,C]2 | %10
 B,>B, G,3 G, | [F,A,]>[F,A,] [B,,B,]4 | [D,B,]>[D,B,] [E,B,]3 [E,B,] | %13
 [E,B,]>[E,B,] [E,B,]2 [E,B,]2 | [E,G,]>[E,A,] [F,B,]2 [F,B,]2 | [F,A,]>F, [B,,F,]4 | %16
 [B,,B,]>[B,,B,] [B,,F,]3 [B,,F,] | [B,,F,]>[B,,F,] [C,F,]2 [C,F,]2 | %18
 [F,A,]>[F,A,] [F,A,]3 [F,A,] | [F,G,]>[F,A,] [B,,B,]4 | [D,B,]>[D,B,] [E,B,]3 [E,B,] | %21
 [E,B,]>[E,B,] [E,B,]2 [E,B,]2 | [E,B,]>[E,B,] [F,B,]2 F,2 | F,>[F,A,] [B,,B,]4- | [B,,B,]4 z2 |] %25

